images_sukapura_svg/cmd/lc_bezierinsert.svg

<svg viewBox="0 0 24 24" xmlns="http://www.w3.org/2000/svg" xmlns:xlink="http://www.w3.org/1999/xlink"><linearGradient id="a" gradientTransform="matrix(.26458333 0 0 .26458333 101.6 307.58333)" gradientUnits="userSpaceOnUse" x1="18.5" x2="18.5" y1="23" y2="14.5"><stop offset="0" stop-color="#d70015"/><stop offset="1" stop-color="#ff453a"/></linearGradient><linearGradient id="b" gradientUnits="userSpaceOnUse" x1="10.830508" x2="10.515625" xlink:href="#a" y1="12.932203" y2="10"/><linearGradient id="c" gradientTransform="translate(-4)" gradientUnits="userSpaceOnUse" x1="5.016949" x2="5.271186" xlink:href="#a" y1="21.923729" y2="18.771187"/><linearGradient id="d" gradientTransform="translate(0 -5)" gradientUnits="userSpaceOnUse" x1="20.068359" x2="20.576271" xlink:href="#a" y1="7.824219" y2="5.279661"/><linearGradient id="e" gradientTransform="matrix(.70710678 .70710678 -.70710678 .70710678 0 0)" gradientUnits="userSpaceOnUse" x1="15.056349" x2="16.056349" y1="0" y2="0"><stop offset="0" stop-color="#0040dd"/><stop offset="1" stop-color="#0a84ff"/></linearGradient><path d="m19.130859 2.1621094-6.83789 6.8378906h.707031v.7070312l6.837891-6.8378906zm-10.130859 10.1308596-6.8378906 6.83789.7070312.707032 6.8378906-6.837891h-.7070312z" fill="url(#e)"/><path d="m9 9v4h4v-4zm1 1h2v2h-2z" fill="url(#b)"/><rect fill="#32d74b" height="12" ry="1" transform="rotate(90)" width="2" x="16" y="-23"/><rect fill="#32d74b" height="12" ry="1" width="2" x="16" y="11"/><path d="m19 0h3v3h-3z" fill="url(#d)"/><path d="m0 19h3v3h-3z" fill="url(#c)"/></svg>

<?xml version="1.0" encoding="UTF-8" standalone="no"?>
<svg
   xmlns:dc="http://purl.org/dc/elements/1.1/"
   xmlns:cc="http://creativecommons.org/ns#"
   xmlns:rdf="http://www.w3.org/1999/02/22-rdf-syntax-ns#"
   xmlns:svg="http://www.w3.org/2000/svg"
   xmlns="http://www.w3.org/2000/svg"
   xmlns:xlink="http://www.w3.org/1999/xlink"
   xmlns:sodipodi="http://sodipodi.sourceforge.net/DTD/sodipodi-0.dtd"
   xmlns:inkscape="http://www.inkscape.org/namespaces/inkscape"
   viewBox="0 0 24 24"
   version="1.1"
   id="svg16"
   sodipodi:docname="lc_bezierinsert.svg"
   inkscape:version="0.92.3 (unknown)">
  <metadata
     id="metadata22">
    <rdf:RDF>
      <cc:Work
         rdf:about="">
        <dc:format>image/svg+xml</dc:format>
        <dc:type
           rdf:resource="http://purl.org/dc/dcmitype/StillImage" />
        <dc:title></dc:title>
      </cc:Work>
    </rdf:RDF>
  </metadata>
  <defs
     id="defs20">
    <linearGradient
       id="d"
       gradientUnits="userSpaceOnUse"
       x1="-19.897808"
       x2="-19.579052"
       y1="17.182213"
       y2="1.9957711">
      <stop
         offset="0"
         stop-color="#0040dd"
         id="stop9" />
      <stop
         offset="1"
         stop-color="#0a84ff"
         id="stop11" />
    </linearGradient>
    <linearGradient
       id="b"
       gradientUnits="userSpaceOnUse"
       x1="1.355932"
       x2="1.644068"
       xlink:href="#a"
       y1="15.720339"
       y2="13.076271" />
    <linearGradient
       id="a"
       gradientTransform="matrix(0.26458333,0,0,0.26458333,101.6,307.58333)"
       gradientUnits="userSpaceOnUse"
       x1="18.5"
       x2="18.5"
       y1="23"
       y2="14.5">
      <stop
         offset="0"
         stop-color="#d70015"
         id="stop2" />
      <stop
         offset="1"
         stop-color="#ff453a"
         id="stop4" />
    </linearGradient>
    <linearGradient
       id="c"
       gradientUnits="userSpaceOnUse"
       x1="14.559322"
       x2="14.576271"
       xlink:href="#a"
       y1="4.7203388"
       y2="2.144068" />
    <linearGradient
       gradientTransform="translate(-20.305085,-6.5042458)"
       id="e"
       gradientUnits="userSpaceOnUse"
       x1="5.1694908"
       x2="5.1016951"
       xlink:href="#a"
       y1="6.5593219"
       y2="3.169492" />
    <linearGradient
       inkscape:collect="always"
       xlink:href="#a"
       id="linearGradient885"
       x1="10.830508"
       y1="12.932203"
       x2="10.515625"
       y2="10"
       gradientUnits="userSpaceOnUse" />
    <linearGradient
       inkscape:collect="always"
       xlink:href="#a"
       id="linearGradient893"
       x1="5.0169492"
       y1="21.923729"
       x2="5.2711864"
       y2="18.771187"
       gradientUnits="userSpaceOnUse"
       gradientTransform="translate(-4)" />
    <linearGradient
       inkscape:collect="always"
       xlink:href="#a"
       id="linearGradient895"
       x1="20.068359"
       y1="7.8242188"
       x2="20.576271"
       y2="5.2796612"
       gradientUnits="userSpaceOnUse"
       gradientTransform="translate(0,-5)" />
    <linearGradient
       inkscape:collect="always"
       xlink:href="#d"
       id="linearGradient847"
       x1="15.056349"
       y1="0"
       x2="16.056349"
       y2="0"
       gradientUnits="userSpaceOnUse"
       gradientTransform="rotate(45)" />
  </defs>
  <sodipodi:namedview
     pagecolor="#ffffff"
     bordercolor="#666666"
     borderopacity="1"
     objecttolerance="10"
     gridtolerance="10"
     guidetolerance="10"
     inkscape:pageopacity="0"
     inkscape:pageshadow="2"
     inkscape:window-width="1366"
     inkscape:window-height="706"
     id="namedview18"
     showgrid="false"
     inkscape:zoom="19.666667"
     inkscape:cx="4.4473032"
     inkscape:cy="9.616248"
     inkscape:window-x="0"
     inkscape:window-y="0"
     inkscape:window-maximized="1"
     inkscape:current-layer="svg16">
    <inkscape:grid
       type="xygrid"
       id="grid834" />
  </sodipodi:namedview>
  <path
     style="opacity:1;vector-effect:none;fill:url(#linearGradient847);fill-opacity:1;stroke:none;stroke-width:1;stroke-linecap:butt;stroke-linejoin:miter;stroke-miterlimit:4;stroke-dasharray:none;stroke-dashoffset:0;stroke-opacity:1"
     d="M 19.130859,2.1621094 12.292969,9 H 13 V 9.7070312 L 19.837891,2.8691406 Z M 9,12.292969 2.1621094,19.130859 2.8691406,19.837891 9.7070312,13 H 9 Z"
     id="rect839"
     inkscape:connector-curvature="0"
     sodipodi:nodetypes="ccccccccccsc" />
  <path
     d="m9 9v4h4v-4zm1 1h2v2h-2z"
     fill="#4d82b8"
     id="path10"
     style="fill-opacity:1;fill:url(#linearGradient885)" />
  <rect
     fill="#4d82b8"
     height="12"
     ry="1"
     transform="rotate(90)"
     width="2"
     x="16"
     y="-23"
     id="rect12"
     style="fill-opacity:1;fill:#32d74b" />
  <rect
     fill="#4d82b8"
     height="12"
     ry="1"
     width="2"
     x="16"
     y="11"
     id="rect14"
     style="fill-opacity:1;fill:#32d74b" />
  <path
     inkscape:connector-curvature="0"
     style="fill:url(#linearGradient895);fill-opacity:1"
     id="path6"
     d="m 19,0 h 3 v 3 h -3 z" />
  <path
     inkscape:connector-curvature="0"
     style="fill:url(#linearGradient893);fill-opacity:1"
     id="path4"
     d="m 0,19 h 3 v 3 H 0 Z" />
</svg>
